public/new/svg10.svg

<svg fill="none" height="28" viewBox="0 0 28 28" width="28" xmlns="http://www.w3.org/2000/svg"><g clip-rule="evenodd" fill="#77787e" fill-rule="evenodd"><path d="m11.118 6c-.0928 0-.1837.02582-.2627.07456-.0789.04875-.1427.11849-.1843.20144l-.862 1.724h-4.309c-.39782 0-.77936.15804-1.06066.43934s-.43934.66284-.43934 1.06066v10c0 .3978.15804.7794.43934 1.0607s.66284.4393 1.06066.4393h16c.3978 0 .7794-.158 1.0607-.4393s.4393-.6629.4393-1.0607v-10c0-.39782-.158-.77936-.4393-1.06066s-.6629-.43934-1.0607-.43934h-4.309l-.862-1.724c-.0416-.08295-.1054-.15269-.1843-.20144-.079-.04874-.1699-.07456-.2627-.07456zm-1.342-.17c.12449-.24937.316-.45912.553-.60572.2371-.14661.5103-.22427.789-.22428h4.764c.2787.00001.5519.07767.789.22428.237.1466.4285.35635.553.60572l.585 1.17h3.691c.3283 0 .6534.06466.9567.1903s.5789.30979.8111.54193c.2321.23215.4163.50775.5419.81106.1256.30332.1903.62841.1903.95671v10c0 .3283-.0647.6534-.1903.9567s-.3098.5789-.5419.8111c-.2322.2321-.5078.4163-.8111.5419s-.6284.1903-.9567.1903h-16c-.66304 0-1.29893-.2634-1.76777-.7322-.46884-.4689-.73223-1.1048-.73223-1.7678v-10c0-.66304.26339-1.29893.73223-1.76777s1.10473-.73223 1.76777-.73223h3.691z"/><path d="m13.5 18c.4596 0 .9148-.0905 1.3394-.2664s.8105-.4337 1.1355-.7587.5828-.7109.7587-1.1355.2664-.8798.2664-1.3394-.0905-.9148-.2664-1.3394-.4337-.8105-.7587-1.1355-.7109-.5828-1.1355-.7587-.8798-.2664-1.3394-.2664c-.9283 0-1.8185.3687-2.4749 1.0251s-1.0251 1.5466-1.0251 2.4749.3687 1.8185 1.0251 2.4749 1.5466 1.0251 2.4749 1.0251zm0 1c1.1935 0 2.3381-.4741 3.182-1.318s1.318-1.9885 1.318-3.182-.4741-2.3381-1.318-3.182-1.9885-1.318-3.182-1.318-2.3381.4741-3.182 1.318c-.84389.8439-1.318 1.9885-1.318 3.182s.47411 2.3381 1.318 3.182c.8439.8439 1.9885 1.318 3.182 1.318z"/></g></svg>

<svg width="28" height="28" viewBox="0 0 28 28" fill="none" xmlns="http://www.w3.org/2000/svg">
<path fill-rule="evenodd" clip-rule="evenodd" d="M11.118 6C11.0252 6 10.9343 6.02582 10.8553 6.07456C10.7764 6.12331 10.7126 6.19305 10.671 6.276L9.809 8H5.5C5.10218 8 4.72064 8.15804 4.43934 8.43934C4.15804 8.72064 4 9.10218 4 9.5V19.5C4 19.8978 4.15804 20.2794 4.43934 20.5607C4.72064 20.842 5.10218 21 5.5 21H21.5C21.8978 21 22.2794 20.842 22.5607 20.5607C22.842 20.2794 23 19.8978 23 19.5V9.5C23 9.10218 22.842 8.72064 22.5607 8.43934C22.2794 8.15804 21.8978 8 21.5 8H17.191L16.329 6.276C16.2874 6.19305 16.2236 6.12331 16.1447 6.07456C16.0657 6.02582 15.9748 6 15.882 6H11.118ZM9.776 5.83C9.90049 5.58063 10.092 5.37088 10.329 5.22428C10.5661 5.07767 10.8393 5.00001 11.118 5H15.882C16.1607 5.00001 16.4339 5.07767 16.671 5.22428C16.908 5.37088 17.0995 5.58063 17.224 5.83L17.809 7H21.5C21.8283 7 22.1534 7.06466 22.4567 7.1903C22.76 7.31594 23.0356 7.50009 23.2678 7.73223C23.4999 7.96438 23.6841 8.23998 23.8097 8.54329C23.9353 8.84661 24 9.1717 24 9.5V19.5C24 19.8283 23.9353 20.1534 23.8097 20.4567C23.6841 20.76 23.4999 21.0356 23.2678 21.2678C23.0356 21.4999 22.76 21.6841 22.4567 21.8097C22.1534 21.9353 21.8283 22 21.5 22H5.5C4.83696 22 4.20107 21.7366 3.73223 21.2678C3.26339 20.7989 3 20.163 3 19.5V9.5C3 8.83696 3.26339 8.20107 3.73223 7.73223C4.20107 7.26339 4.83696 7 5.5 7H9.191L9.776 5.83Z" fill="#77787E"/>
<path fill-rule="evenodd" clip-rule="evenodd" d="M13.5 18C13.9596 18 14.4148 17.9095 14.8394 17.7336C15.264 17.5577 15.6499 17.2999 15.9749 16.9749C16.2999 16.6499 16.5577 16.264 16.7336 15.8394C16.9095 15.4148 17 14.9596 17 14.5C17 14.0404 16.9095 13.5852 16.7336 13.1606C16.5577 12.736 16.2999 12.3501 15.9749 12.0251C15.6499 11.7001 15.264 11.4423 14.8394 11.2664C14.4148 11.0905 13.9596 11 13.5 11C12.5717 11 11.6815 11.3687 11.0251 12.0251C10.3687 12.6815 10 13.5717 10 14.5C10 15.4283 10.3687 16.3185 11.0251 16.9749C11.6815 17.6313 12.5717 18 13.5 18ZM13.5 19C14.6935 19 15.8381 18.5259 16.682 17.682C17.5259 16.8381 18 15.6935 18 14.5C18 13.3065 17.5259 12.1619 16.682 11.318C15.8381 10.4741 14.6935 10 13.5 10C12.3065 10 11.1619 10.4741 10.318 11.318C9.47411 12.1619 9 13.3065 9 14.5C9 15.6935 9.47411 16.8381 10.318 17.682C11.1619 18.5259 12.3065 19 13.5 19Z" fill="#77787E"/>
</svg>
